ummisco.gama.ui.shared/svg/markers/marker.warning.svg

<svg xmlns="http://www.w3.org/2000/svg" width="13" height="13" viewBox="-752.5 -3690.5 13 13"><g fill="none"><circle cx="-746" cy="-3684" r="6" fill="#000"/><path fill="#fec700" d="M-746-3690c-3.318 0-6 2.682-6 6s2.682 6 6 6 6-2.682 6-6-2.682-6-6-6Zm3 8.154-.846.846-2.154-2.154-2.154 2.154-.846-.846 2.154-2.154-2.154-2.154.846-.846 2.154 2.154 2.154-2.154.846.846-2.154 2.154 2.154 2.154Z"/></g></svg>

<?xml version="1.0" encoding="UTF-8" standalone="no"?>
<!DOCTYPE svg PUBLIC "-//W3C//DTD SVG 1.1//EN" "http://www.w3.org/Graphics/SVG/1.1/DTD/svg11.dtd">
<svg xmlns:xl="http://www.w3.org/1999/xlink" xmlns:dc="http://purl.org/dc/elements/1.1/" version="1.1" xmlns="http://www.w3.org/2000/svg" viewBox="-752 -3690 12 12" width="12" height="12">
  <defs/>
  <g id="ICONES" stroke="none" fill="none" stroke-opacity="1" stroke-dasharray="none" fill-opacity="1">
    <title>ICONES</title>
    <g id="ICONES_Calque_1">
      <title>Calque 1</title>
      <g id="Group_2109">
        <title>markers/marker.warning</title>
        <g id="Graphic_2111">
          <circle cx="-746" cy="-3684" r="6.00000958741117" fill="black"/>
        </g>
        <g id="Graphic_2110">
          <path d="M -746 -3690 C -749.318 -3690 -752 -3687.318 -752 -3684 C -752 -3680.682 -749.318 -3678 -746 -3678 C -742.682 -3678 -740 -3680.682 -740 -3684 C -740 -3687.318 -742.682 -3690 -746 -3690 Z M -743 -3681.846 L -743.846 -3681 L -746 -3683.154 L -748.154 -3681 L -749 -3681.846 L -746.846 -3684 L -749 -3686.154 L -748.154 -3687 L -746 -3684.846 L -743.846 -3687 L -743 -3686.154 L -745.154 -3684 L -743 -3681.846 Z" fill="#fec700"/>
        </g>
      </g>
    </g>
  </g>
</svg>
